X:12
T:Roman Reel. ASH.12
M:2/4
L:1/8
Q:1/4=160
S:Harrison & Wall MS,Ashover,Derbyshire,1762-75
R:.Reel
O:England
A:Derbyshire
Z:vmp.Chris Partington, 2003
K:A
e | e>Aa>e | f>ed>c | B>cd>e | c>BA>e|!
e>Aa>e | f>ed>c | B>dc>B | A3 :|!
|:e | B>dc>e | d>cB>c | c>ed>f | e>dc>e |!
e>ca>e | f>ed>c | B>dc>B | A3 :|

